X:1
T: Castledykes Reel
C:
R:Reel
Q: 232
K:G
M:4/4
L:1/8
d2|g2 d2 d^c d2|e2 c2 cB c2|d2 B2 Be dB|c2 A2 A2 d2|
g2 d2 d^c d2|e2 c2 cB c2|d2 cB Ac BA|G2 B2 G3A|
|:B2 B2 Be dB|c2 A2 A3G|FG AB cA fe|d2 B2 B2 GA|
B2 B2 Be dB|c2 A2 A3G|FG AB ce dc|1B2 G2 G3A:|2B2 G2 G2 d2|
g2 d2 d^c d2|e2 c2 cB c2|d2 B2 Be dB|c2 A2 A2 d2|
g2 d2 d^c d2|e2 c2 cB c2|d2 cB Ac BA|G2 B2 G2||
